X:181
T:Humors Of Kilclogher
R:jig
M:6/8
L:1/8
K:Ador
|: B | AGE G2E | c2E G2E | DED DFA | GED D2B |
AGE G2E | c2E G2E | A2A BGE | A2A A2::
B | c2B c2d | ecA ABc | BAG GAB | dBG GAB |
c2B c2d | ecA ABc | BAG GEG | A3 A2 :|
